static/assets/images/icons/pyth.svg

<svg width="256" height="256" viewBox="0 0 256 256" fill="none" xmlns="http://www.w3.org/2000/svg">
<path d="M147.902 115.018C147.902 126.061 138.955 135.015 127.92 135.015V155.012C149.99 155.012 167.884 137.104 167.884 115.018C167.884 92.9319 149.99 75.024 127.92 75.024C120.645 75.024 113.813 76.9687 107.938 80.3783C95.9906 87.2882 87.9563 100.213 87.9563 115.018V215.003L107.938 235V115.018C107.938 103.975 116.885 95.0211 127.92 95.0211C138.955 95.0211 147.902 103.975 147.902 115.018Z" fill="black"/>
<path d="M127.928 35C113.368 35 99.7216 38.8981 87.9639 45.7085C80.4357 50.0588 73.6937 55.603 67.982 62.0877C55.5463 76.1877 48 94.7108 48 114.988V174.979L67.982 194.976V114.988C67.982 97.225 75.7 81.2618 87.9639 70.2729C93.73 65.1176 100.499 61.0476 107.946 58.4248C114.191 56.1999 120.924 54.997 127.928 54.997C161.033 54.997 187.874 81.8585 187.874 114.988C187.874 148.117 161.033 174.979 127.928 174.979V194.976C172.076 194.976 207.856 159.161 207.856 114.988C207.856 70.8154 172.076 35 127.928 35Z" fill="black"/>
</svg>

<svg xmlns="http://www.w3.org/2000/svg" fill="none" viewBox="0 0 256 256"><path fill="#000" d="M147.902 115.018c0 11.043-8.947 19.997-19.982 19.997v19.997c22.07 0 39.964-17.908 39.964-39.994S149.99 75.024 127.92 75.024c-7.275 0-14.107 1.945-19.982 5.354-11.947 6.91-19.982 19.835-19.982 34.64v99.985L107.938 235V115.018c0-11.043 8.947-19.997 19.982-19.997s19.982 8.954 19.982 19.997"/><path fill="#000" d="M127.928 35c-14.56 0-28.206 3.898-39.964 10.709a80 80 0 0 0-19.982 16.379C55.546 76.188 48 94.71 48 114.988v59.991l19.982 19.997v-79.988c0-17.763 7.718-33.726 19.982-44.715 5.766-5.155 12.535-9.225 19.982-11.848 6.245-2.225 12.978-3.428 19.982-3.428 33.105 0 59.946 26.862 59.946 59.991s-26.841 59.991-59.946 59.991v19.997c44.148 0 79.928-35.815 79.928-79.988S172.076 35 127.928 35"/></svg>
